X:1
T:Title
%%score { ( 1 3 ) | ( 2 4 ) }
L:1/8
Q:1/4=90
M:6/8
K:Bb
V:1 treble nm="Grand Piano"
V:3 treble 
V:2 bass 
V:4 bass 
V:1
 [DF][DF][DF] [DF][EG][EA] | [DB]2 [Ec] [Fd]3 | GGG [=Ec]2 [Ed] | c6 | [DF][DF][DF] [DF][EG][EA] | %5
w: W.~J.~Kirkpatrick * * * * *|||||
 [DB]2 [Ec] [Fd]3 | ccc d2 c | [DB]6 | .[Fd]6 | .[DF]6 | .c6 | [Fd]6 | .d6 | .[Ge]6 | BBB AGA | %15
w: ||||||||||
 [DB]6 |] %16
w: |
V:2
 [B,,B,][B,,B,][B,,B,] [B,,B,]2 [B,,F,] | [B,,F,]2 [B,,F,] [B,,B,]3 | %2
 [E,B,E][E,B,E][E,G,E] [C,G,]2 [C,B,] | F3 z3 | [B,,B,][B,,B,][B,,B,] [B,,B,]2 [B,,F,] | %5
 [B,,F,]2 [B,,F,] [B,,B,]3 | [F,A,E][F,A,E][F,A,E] [F,B,F]2 [F,A,E] | [B,,F,B,]6 | %8
 [B,,B,]B,,B,, B,,[B,,F,][B,,F,] | B,,B,,B,, B,,[B,,B,]F | .E6 | [B,,B,]B,,B,, .B,,3 | %12
 [B,,B,]B,,B,, [B,,F,][B,,F,][B,,B,] | [E,B,]E,E, E,[E,B,E][E,E] | %14
 [F,DF][F,DF][F,DF] [F,CF][F,B,=E][F,C_E] | [B,,B,]6 |] %16
V:3
 x6 | x6 | x6 | z3 .E3 | x6 | x6 | x6 | x6 | z B,B, B,[Ec][DB] | B,B,B, B,Bd | z A,A, A,Bc | %11
 z B,B, .B,3 | F-[B,F-][B,F] B[Ac][_Ad] | z B,B, B,G[Gc] | x6 | x6 |] %16
V:4
 x6 | x6 | x6 | [F,A,]3- [F,,F,A,]3 | x6 | x6 | x6 | x6 | x6 | x6 | [F,A,]F,F, F,[F,B,D][F,A,E] | %11
 x6 | x6 | x6 | x6 | x6 |] %16

